X: 1
T: Gan Ainm
M: 4/4
L: 1/8
R: barndance
K: Dmaj
F>G|: A>FA>f A2G>A | B>AB>g B2A>B |1 c>Bc>B A>AB>A |
F2F>G F2(3EFG :|2 c>Bc>B A>gf>e | d2d>e d2c>d ||
e>de>f g>fe>c | d>cd>e f2d>c | B>AB>c d>cd>f | e2e>f e2F>G |
A>FA>f A2G>A | B>AB>g B2A>B | c>Bc>B A>gf>e | d2d>e d2z2 |
